X:1
T:Bonny at morn
T:Arranged by  W.G.Whittaker (1876 - 1944)
T:To C.F.B.
T:© CPDL 2014
T:Bonny at morn
T:© CPDL 2014
T:© CPDL 2014
T:© CPDL 2014
T:© CPDL 2014
T:© CPDL 2014
T:© CPDL 2014
T:© CPDL 2014
T:© CPDL 2014
T:© CPDL 2014
T:© CPDL 2014
C:Arranged by  W.G.Whittaker (1876 - 1944)
Z:© CPDL 2014
%%score [ ( 1 2 ) 3 4 ( 5 6 ) ]
L:1/8
M:6/4
K:Bb
V:1 treble nm="Soprano" snm="S."
V:2 treble 
V:3 treble nm="Alto" snm="A."
V:4 treble-8 transpose=-12 nm="Tenor" snm="T."
V:5 bass nm="Bass" snm="B."
V:6 bass 
V:1
!mf!"^Very smooth and not too slowly" A2 | (d3 e) dc d2 G2 (AB) | (c3 B) AG (F2 G2) A2 | %3
w: The|sheep's _ in the mea- dow, The _|kye's _ in the corn, _ (Thou's|
w: |||
 d3 e (dc) d2 G2 A2 | c2 A2 F2 G4!pp! A2 | (d3 e) dc d2 G2 (AB) | (c3 B) AG (F2 G2) A2 | %7
w: ow- er lang _ in thy bed,)|Bon- ny at morn. The|sheep's _ in the mea- dow, The _|kye's _ in the corn, _ (Thou's|
w: ||||
!<(! (GF) (GA) (Bc) d2 g2!<)! f2 |!mf! d2!>(! f2 A2!>)! G4 z2 |!p! G2 [Bg]2 [Bg]2 (G4 B2) | %10
w: ow- * er _ lang _ in thy bed,)|Bon- ny at morn.|Can- ny at night, _|
w: |||
 A2 [Af]2 [Af]2 F4 A2 |!<(! G3 A (Bc) d2 g2!<)! f2 | %12
w: Bon- ny at morn, (Thou's|ow- er lang * in thy bed,)|
w: ||
"^rit."!>(! d2 f2 A2!>)! !fermata!G4!p!"^a tempo" A2 | (d3 e) dc (d2 G2) (AB) | %14
w: Bon- ny at morn. The|bird's _ in the nest, _ The *|
w: ||
 (c3 B) AG (F2 G2) A2 | (d3 e) dc d2!<(! G2!<)! A2 |!>(! c2 A2 F2 G4!>)!!pp! A2 | %17
w: trout's _ in the burn, _ Thou|hin- * ders thy moth- er in|ma- ny a turn, The|
w: |||
 (d3 e) dc (d2 G2) (AB) | (c3 B) AG (F2 G2) A2 | %19
w: bird's _ in the nest, _ The *|trout's _ in the burn, * Thou|
w: ||
!<(!!<(!!<(!!<(!!<(! (G!<)!!<)!!<)!!<)!F) (GA) (Bc)!<)! d2!>(! g2!>)! f2 | d2 f2 A2 G4 z2 | %21
w: hin- * ders _ thy _ moth- er in|ma- ny a turn.|
w: ||
!pp! G2!pp!"^leggiero" g2 g2 G4 B2 | A2 f2 f2 F4 A2 |"^rit." (G3 A) Bc d2 g2 f2 | %24
w: |||
w: Can- ny at night, _|Bon- ny at morn, Thou|hin- * ders thy moth- er at|
 d2 f2 A2"^a tempo" G6- | G4 z2 z4 z2 | z4 z2 z4!mf! A2 | (d3 e) (dc) d2 G2 (AB) | %28
w: ||We're|all _ laid * i- dle, Wi' *|
w: ma- ny a turn.|_|||
 (c3 B)AG (F2 G2) A2 | (d3 e) dc d2!<(! G2!<)! A2 |!>(! c2 A2 F2!>)! G4!p! A2 | %31
w: keep- * in' the bairn, _ The|lad _ win- not work, And the|lass win- not lairn. We're|
w: |||
 (d3 e) (dc) d2 G2 (AB) | (c3 B) AG (F2 G2) A2 |!<(! (GF) (GA) (Bc) d2 g2!<)! f2 | %34
w: all _ laid _ i- dle, Wi' _|keep- * in the bairn, _ The|lad * win- * not * work, And the|
w: |||
!f! d2!>(! f2 A2!>)! G4 z2 |!p! G2 g2!>(! g2!>)! (G4 B2) |!<(! A2 f2!<)!!>(! f2!>)! F4 A2 | %37
w: lass win- not lairn.|||
w: |Can- ny at night, _|Bon- ny at morn, *|
"^dim. e rit." G3 A (Bc) d2 g2 f2 |!ppp!"^Lento."[Q:1/4=60] d2 f2 A2 !fermata!G4 || %39
w: ow- er lang _ in thy bed,)|Bon- ny at morn.|
w: ||
V:2
 x2 | x12 | x12 | x12 | x12 | x12 | x12 | x12 | x12 | x12 | x12 | x12 | x12 | x12 | x12 | x12 | %16
w: ||||||||||||||||
 x12 | x12 | x12 | x12 | x12 | x2 de dc (BcBAGF | E2) ef ed (cdcBAG/F/ | GFED C2) B,2 B2 A2 | %24
w: |||||Can- * ny at night, _ _ _ _ _|_ Bon- * ny at morn, _ _ _ _ _ _|_ _ _ _ _ Bon- ny at|
 (d2 f2 A2 G6-) | G4 x8 | x12 | x12 | x12 | x12 | x12 | x12 | x12 | x12 | x12 | %35
w: morn. * * *|||||||||||
 (G3!<(! A)!<)! BA G6 | (F3 G) AG F4 A2 | x12 | x10 || %39
w: Can- * ny at night,|Bon- * ny at morn, (Thou's|||
V:3
!mf! A2 | (F2 D2) FA G2 D2 D2 | E2 C2 E2 (C2 F2) F2 | F2 D2 F2 B2 E2 F2 | %4
w: The|sheep's * in the mea- dow, The|kye's in the corn, _ (Thou's|ow- er lang in thy bed,)|
 G2 F2 C2 D4!pp!!>(! F2!>)! |!ppp! G6- G2 G2 G2 | F6- F2 F2 F2 |!<(! (E6 F2) A2!<)! B2 | %8
w: Bon- ny at morn. The|sheep's _ in the|mea- * dow, The|kyes _ in the|
!mf!!>(! (A4 F2!>)! D4) z2 |!p! D2 G2 G2 D6 | F2 C2 F2 C4 C2 |!<(! E3 F (GA) B2 D2!<)! F2 | %12
w: corn. _ _|Can- ny at night,|Bon- ny at morn, (Thou's|ow- er lang * in thy bed,)|
"^rit." B2!>(! A2 F2!>)! !fermata!D4"^a tempo"!p! A2 | (DE) F2 E2 (DE F2) D2 | (CD) E2 C2 D4 C2 | %15
w: Bon- ny at morn. The|bird's * in the nest, _ _ The|trout's * in the burn, Thou|
!<(! (G,A,) B,2 D2!<)!!>(! (B3 A) G!>)!F |!>(! (ED) (CB,) (B,A,) (G,2 G2)!>)!!pp! z!<(! A!<)! | %17
w: hin- * ders thy moth- * er in|ma- * ny _ a _ turn _ Thou|
!mp! A2!>(! G3!>)!!<(! G!<)!!mp! A2!>(! G3!>)!!<)!!<(! G | %18
w: hin- ders thy moth- er in|
!mp!!>(! A2 G3!>)!!<(! G!<)!!mp! (A2!>(! G3)!>)! G | D3!<(! D F2 B2 c2!<)! d2 | %20
w: ma- ny a turn, _ Thou|hin- ders thy moth- er in|
!>(! A2 G3 (F/E/)!>)! D4 z2 | z2!pp! (B"^leggiero"c)BA (GAGFED | C2) cd cB (ABAGFE/D/ | %23
w: ma- ny a _ turn.|Can- * ny at night, * * * * *|* Bon- * ny at morn, * * * * * *|
"^rit." CDCB, A,2) G,2 G2 A2 | (E6"^a tempo" D6-) | D4 z2 z4 z2 | z4 z2 z4!mf! A2 | (A6 G6 | %28
w: * * * * * Bon- ny at|morn. _|_|We're|all _|
 E3 D) (CB,) A,2 B,2 C2 | (G6- G4- GF | EC)!<(! (DB,) (C!<)!A,)!>(! (C2!>)! B,2) z2 | %31
w: _ _ laid * i- dle, Wi'|keep- * * *|* * in' _ the * bairn. _|
 !>![GB]2 [G,B,]2 [G,B,]2"^poco"!<)!!<(!!>(! [GB]6!>)! | %32
w: Can- ny at night,|
 !>![FA]2 [F,A,]2 [F,A,]2"^poco"!>)!!>(!!<)!!<(! A6 | %33
w: Bon- ny at morn,|
!<(! !>![Bd]2 [B,D]2 [B,D]2!<)!!>(! ([Bd]2 [FA]2!>)! [GB]2) | %34
w: Can- ny at night, _ _|
!<(! !>![Ac]2 [A,C]2 [A,C]2!<)!!f!!>(! ([A,C]3 [CE][B,D]!>)![A,C] |!p! [G,B,]6)!p! B,2 D2 G2 | %36
w: Bon- ny at morn, _ _ _|_ Can- ny at|
 (C2 A,2 B,2 A,2 C2) F2 |"^dim. e rit." (ED) (CB,) (A,G,) G2 E2 F2 |!ppp! A2 B2 D2 B,4 || %39
w: night, _ _ _ _ (Thou's|ow- * er _ lang _ in thy bed,)|Bon- ny at morn.|
V:4
!mf! A2 | A2 f2 A2 B2 B2 G2 | G3 G c2 (A2 d2) c2 | B2 f2 B2 B2 B2 c2 | e2 c2 c2 B4 z2 | %5
w: The|sheep's in the mea- dow, The|kye's in the corn, _ (Thou's|ow- er lang in thy bed,)|Bon- ny at morn.|
 z2 z2!pp! G2 (d3 e) dB | f2 F2 F2 (c3 d) cA |!<(! (e2 E2) E2 B2 e2!<)! f2 | %8
w: The sheep's _ in the|mea- dow, The kye's _ in the|corn, _ the kye's in the|
!mf! (d2!>(! c4!>)! B4) z2 |!p! B2 d2 d2 B6 | c2 f2 c2 A4 A2 | %11
w: corn. _ _|Can- ny at night,|Bon- ny at morn, (Thou's|
!<(! (B2 g)!<)!!>(!f e2!>)!!<(! d2 B2!<)! c2 |"^rit." f2!>(! d2 c2!>)! !fermata!B4"^a tempo" z2 | %13
w: ow- * er lang in thy bed,)|Bon- ny at morn.|
 z12 | z12 | z12 | z4 z2 z4 z!pp! A | (Bc) d2 c2 (Bcdc) (BA) | (GA) (Bc) G2 (A2 B2)!<)!!<(! e2 | %19
w: |||The|bird's * in the nest, _ _ _ The *|* trout's in _ the burn, _ Thou|
!>(! A2!>)!!<(! G2 d2!<)!!>(! (g2 (e2!>)! d2) | f2) A2 c2!<(! B2!<)!!>(! d2!>)! A2 | %21
w: hin- ders thy moth- * *|* er in ma- ny a|
!>(! G4!>)! z2 G4 g2 | g2 g4 G6 | z4 z2 g2 G2 d2 | (A4 GA"^a tempo" B6-) | B4 z2 z4 z2 | %26
w: turn. Can- ny|* at night,|Bon- ny at|morn. _ _ _|_|
 z4 z2 z4!mf! c2 | (B12 | G6 c4) e2 | (B6- B4- B)A | G2!<(! F2 A2!<)!!>(! G4!>)!!p! D2 | %31
w: We're|all|_ _ laid|keep- * * *|* in' the bairn. We're|
 (DE) (DC) (D2- DE) DC (D2- | DE) DC (D2- DE) (DC) (D2- |!<(! DE) DC (D2- DEDC!<)! D2- | %34
w: all _ laid _ i- * * dle, Wi' keep-|* * in the bairn, _ _ The * lad|_ _ win- not work, _ _ _ _ _|
!f! D!>(!E) DC (D2- DE) DC!>)! D2- |!p! D2 z2 z2!p!!<(! (GA) (Bc) (d!<)!e) | %36
w: _ _ And the lass _ _ win- not lairn.|_ Can- * ny _ at _|
"^poco"!>(! f6!>)!!<(! (FG) (AB)!<)! (c"^poco"d) | %37
w: night., Bon- * ny _ at _|
"^dim. e rit."!>(! e6 (!>!AB) (!>!Bc) (!>!cd)!>)! |!ppp! (f2 d2 A2 !fermata!D4) || %39
w: morn, Bon- * ny _ at _|morn. _ _ _|
V:5
!mf! A,2 | D,2 F,2 D,2 G,2 G,,2 G,2 | C,2 E,2 C,2 (F,2 F,,2) F,2 | B,,2 D,2 B,,2 G,,2 G,2 F,2 | %4
w: The|sheep's in the mea- dow, The|kye's in the corn, _ (Thou's|ow- er lang in thy bed,)|
w: ||||
 C,2 F,2 A,2 G,4!pp!!>)!!>(! D2 |!ppp! [G,B,-]6 [G,B,]2 [G,B,]2 [G,B,]2 | %6
w: Bon- ny at morn. The|sheep's _ in the|
w: ||
 [F,A,]6- [F,A,]2 [F,A,]2 [F,A,]2 |!<(! ([E,G,]6 [B,,F,]2 [C,F,]2)!<)! [D,F,]2 | %8
w: mea- * dow, The|kye's _ _ the|
w: ||
!mf! (F,2!>(! E,2 D,2!>)! G,6- | G,6)!p! G,2 G,,2 G,,2 | F,6 F,2 F,,2 F,,2 | %11
w: corn. _ _ _|_ Can- ny at|night, Bon- ny at|
w: |||
 E,6!<(! (B,,2 G,,2!<)! A,,2 |"^rit." B,,2)!>(! D,2 F,2!>)! !fermata!G,4"^a tempo" z2 | z12 | z12 | %15
w: morn, Bon- * *|* ny at morn.|||
w: ||||
 z12 | z4 z2 z4 z!pp! A, | (G,A,) B,2 A,2 (G,A,B,A,) (G,F,) | E,6 D,4 C,2 | %19
w: |The|bird's * in the nest, _ _ _ Thou *|hin- ders thy|
w: ||||
 (B,,4 A,,2 G,,2) A,,2 (B,,C,) | x2 x2 x2 G,6- |"^poco"!<(! G,12-!<)! |!>(! G,12-!>)! | %23
w: moth- * * er in _||||
w: |turn.|_||
"^rit." E,6 z4 z2 | z4 z!f! z/ D,/"^a tempo" (D,3 E,) (D,C,) | D,2 D,3 D, D,3- E, D,C, | %26
w: |||
w: |We're all _ laid _|i- dle Wi' keep- * in' the|
!>(! (D,12-!>)! | D,E,D,C, D,2- D,E,D,C, D,2- | D,E,) (D,C,) (D,2- D,E,) D,C, (D,2- | %29
w: bairn.|_ _ _ _ _ _ _ _ _ _|* * The * lad _ _ win- not work,|
w: bairn.|||
 D,E,D,C, D,2- D,E,) D,C, (D,2- | D,E,D,C,!>(! D,2- D,E,) (D,C,)!>)!!p! D,2 | G,,12- | G,,12- | %33
w: _ _ _ _ _ _ _ And the lass|_ _ _ _ _ _ _ win- * not|lairn|_|
w: ||||
!<(! G,,12-!<)! |!f!!>(! G,,12-!>)! |!p! G,,2 z2 z2 !>!G,2 G,,2 G,,2 | F,6 !>!F,2 F,,2 F,,2 | %37
w: ||* Can- ny at|night, Bon- ny at|
w: ||||
"^dim. e rit." (E,6 D,2 C,2 B,,2) |!ppp! (!>!B,,A,,) (!>!A,,G,,) (!>!G,,F,,) !fermata!G,,4 || %39
w: morn, _ _ _|Bon- * ny _ at * morn.|
w: ||
V:6
 x2 | x12 | x12 | x12 | x12 | x12 | x12 | x12 | x12 | x12 | x12 | x12 | x12 | x12 | x12 | x12 | %16
w: ||||||||||||||||
 x12 | x12 | x12 | x12 | D,2 E,2 F,2 G,4 z2 | G,,4 G,2- G,2 G,4 | (G,,6- G,,2 G,4) | E,6 D,4 D,2 | %24
w: ||||ma- ny a turn.|Can- ny _ at|night, _ _|Bon- ny at|
 (C,6 G,,6-) | G,,4 z D, D,3- E, D,C, | x12 | x12 | x12 | x12 | x12 | x12 | x12 | x12 | x12 | x12 | %36
w: morn. _|_ Wi' keep- * in' the|||||||||||
 x12 | x12 | x10 || %39
w: |||

